suite-common/icons/assets/icons/action.svg

<svg xmlns="http://www.w3.org/2000/svg" xml:space="preserve" fill="none" viewBox="0 0 24 24">
  <path fill="#000" fill-rule="evenodd" d="M7.18 3.827a.7.7 0 0 0-.344.341c-.074.144-.076.353-.076 6.84v6.691l-.91-.905c-.5-.499-.968-.935-1.038-.97-.244-.122-.603-.065-.826.131-.219.192-.289.607-.149.877.096.183 3.174 3.256 3.351 3.344a.8.8 0 0 0 .312.064.8.8 0 0 0 .312-.064c.177-.088 3.255-3.161 3.351-3.344.14-.27.07-.685-.149-.877-.223-.196-.582-.253-.826-.131-.07.035-.538.471-1.038.97l-.91.905v-6.691c0-6.487-.002-6.696-.076-6.84a.68.68 0 0 0-.352-.343c-.162-.082-.475-.081-.632.002m9-.001c-.175.091-3.251 3.167-3.343 3.342-.14.27-.07.685.149.877.223.196.582.253.826.131.07-.035.538-.471 1.038-.97l.91-.905v6.691c0 6.487.002 6.696.076 6.84a.72.72 0 0 0 .664.408.72.72 0 0 0 .664-.408c.074-.144.076-.353.076-6.84V6.301l.91.905c.501.499.968.935 1.038.97.254.127.673.048.857-.162a.78.78 0 0 0 .118-.846c-.096-.183-3.174-3.256-3.351-3.344-.162-.081-.475-.08-.632.002"/>
</svg>

<svg xmlns="http://www.w3.org/2000/svg" xml:space="preserve" fill="none" viewBox="0 0 24 24"><path d="M7.180 3.827 C 7.004 3.920,6.921 4.002,6.836 4.168 C 6.762 4.312,6.760 4.521,6.760 11.008 L 6.760 17.699 5.850 16.794 C 5.350 16.295,4.882 15.859,4.812 15.824 C 4.568 15.702,4.209 15.759,3.986 15.955 C 3.767 16.147,3.697 16.562,3.837 16.832 C 3.933 17.015,7.011 20.088,7.188 20.176 C 7.258 20.211,7.399 20.240,7.500 20.240 C 7.601 20.240,7.742 20.211,7.812 20.176 C 7.989 20.088,11.067 17.015,11.163 16.832 C 11.303 16.562,11.233 16.147,11.014 15.955 C 10.791 15.759,10.432 15.702,10.188 15.824 C 10.118 15.859,9.650 16.295,9.150 16.794 L 8.240 17.699 8.240 11.008 C 8.240 4.521,8.238 4.312,8.164 4.168 C 8.078 3.999,7.994 3.917,7.812 3.825 C 7.650 3.743,7.337 3.744,7.180 3.827 M16.180 3.826 C 16.005 3.917,12.929 6.993,12.837 7.168 C 12.697 7.438,12.767 7.853,12.986 8.045 C 13.209 8.241,13.568 8.298,13.812 8.176 C 13.882 8.141,14.350 7.705,14.850 7.206 L 15.760 6.301 15.760 12.992 C 15.760 19.479,15.762 19.688,15.836 19.832 C 15.969 20.094,16.208 20.240,16.500 20.240 C 16.792 20.240,17.031 20.094,17.164 19.832 C 17.238 19.688,17.240 19.479,17.240 12.992 L 17.240 6.301 18.150 7.206 C 18.651 7.705,19.118 8.141,19.188 8.176 C 19.442 8.303,19.861 8.224,20.045 8.014 C 20.249 7.782,20.298 7.428,20.163 7.168 C 20.067 6.985,16.989 3.912,16.812 3.824 C 16.650 3.743,16.337 3.744,16.180 3.826 " stroke="none" fill-rule="evenodd" fill="black"></path></svg>
